!!!COM: Corelli, Arcangelo
!!!OTL: 
!!!ONM: Opus 6, No. 10
!!!OMV: 6
!!!CDT: 1653/2/17/-1713/1/8/
!!!OCY: Italia
**kern	**kern	**kern	**kern	**kern	**kern	**kern
*clefC	*clefG	*clefG	*clefG	*clefC	*clefG	*clefG
*k[]	*k[]	*k[]	*k[]	*k[]	*k[]	*k[]
*C:	*C:	*C:	*C:	*C:	*C:	*C:
*M3/8	*M3/8	*M3/8	*M3/8	*M3/8	*M3/8	*M3/8
=1	=1	=1	=1	=1	=1	=1
4.r	4.r	4.r	4.r	4c	8ee	8gg
.	.	.	.	.	8cc	16ee
.	.	.	.	.	.	16ff
.	.	.	.	8B	8ee	8gg
=2	=2	=2	=2	=2	=2	=2
4.r	4.r	4.r	4.r	8A	8ee	8cc
.	.	.	.	8G	8ee	8cc
.	.	.	.	8F	8ff	8dd
=3	=3	=3	=3	=3	=3	=3
4.r	4.r	4.r	4.r	8E	8gg	16ee
.	.	.	.	.	.	16ff
.	.	.	.	8D	8g	16ee
.	.	.	.	.	.	16ff
.	.	.	.	8C	8cc	8gg
=4	=4	=4	=4	=4	=4	=4
4.r	4.r	4.r	4.r	4G	4b	4dd
.	.	.	.	8C	8cc	8cc
=5	=5	=5	=5	=5	=5	=5
4c	4cc	8ee	8gg	4c	8ee	8gg
.	.	8cc	16ee	.	8cc	16ee
.	.	.	16ff	.	.	16ff
8B	8g	8dd	8gg	8B	8dd	8gg
=6	=6	=6	=6	=6	=6	=6
8A	8cc	8ee	8cc	8A	8ee	8cc
8G	8b	8ee	8cc	8G	8ee	8cc
8F	8a	8ff	8dd	8F	8ff	8dd
=7	=7	=7	=7	=7	=7	=7
8E	4.g	8gg	16ee	8E	8gg	16ee
.	.	.	16ff	.	.	16ff
8D	.	8g	16ee	8D	8g	16ee
.	.	.	16ff	.	.	16ff
8C	.	8cc	8gg	8C	8cc	8gg
=8	=8	=8	=8	=8	=8	=8
4.G	4.g	4.b	4.dd	4.G	4.b	4.dd
=9	=9	=9	=9	=9	=9	=9
4.r	4.r	4.r	4.r	8G	8b	8dd
.	.	.	.	8F	8b	8dd
.	.	.	.	8E	8cc#	8ee
=10	=10	=10	=10	=10	=10	=10
4.r	4.r	4.r	4.r	4.D	16dd	16ff
.	.	.	.	.	16cc#	16ee
.	.	.	.	.	16dd	16ff
.	.	.	.	.	16ee	16gg
.	.	.	.	.	8dd	8ff
=11	=11	=11	=11	=11	=11	=11
4.r	4.r	4.r	4.r	8A	8cc	8ee
.	.	.	.	8G	8cc	8ee
.	.	.	.	8F	8dd	8ff
=12	=12	=12	=12	=12	=12	=12
4.r	4.r	4.r	4.r	4.E	16ee	16gg
.	.	.	.	.	16dd	16ff
.	.	.	.	.	16ee	16gg
.	.	.	.	.	16ff	16aa
.	.	.	.	.	8ee	8gg
=13	=13	=13	=13	=13	=13	=13
4.F	4f	8cc	16aa	4.F	8cc	16aa
.	.	.	16gg	.	.	16gg
.	.	16dd	16ff	.	16dd	16ff
.	.	16cc	16ee	.	16cc	16ee
.	8g	16b	16dd	.	16b	16dd
.	.	16a	16cc	.	16a	16cc
=14	=14	=14	=14	=14	=14	=14
8E	4c	8.g	8.gg	8E	8.g	8.gg
8D	.	.	.	8D	.	.
.	.	16b	16ff	.	16b	16ff
8C	8cc	16cc	16ee	8C	16cc	16ee
.	.	16b	16dd	.	16b	16dd
=15	=15	=15	=15	=15	=15	=15
8FF	8a	16cc	16ee	8FF	16cc	16ee
.	.	16dd	16ff	.	16dd	16ff
4GG	8.d	4b	4dd	4GG	4b	4dd
.	16g	.	.	.	.	.
=16	=16	=16	=16	=16	=16	=16
4.CC	4.e	4.cc	4.cc	4.CC	4.cc	4.cc
=17	=17	=17	=17	=17	=17	=17
4.F	4f	8cc	16aa	4.F	8cc	16aa
.	.	.	16gg	.	.	16gg
.	.	16dd	16ff	.	16dd	16ff
.	.	16cc	16ee	.	16cc	16ee
.	8g	16b	16dd	.	16b	16dd
.	.	16a	16cc	.	16a	16cc
=18	=18	=18	=18	=18	=18	=18
8E	4c	8.g	8.gg	8E	8.g	8.gg
8D	.	.	.	8D	.	.
.	.	16b	16ff	.	16b	16ff
8C	8cc	16cc	16ee	8C	16cc	16ee
.	.	16b	16dd	.	16b	16dd
=19	=19	=19	=19	=19	=19	=19
8FF	8a	16cc	16ee	8FF	16cc	16ee
.	.	16dd	16ff	.	16dd	16ff
4GG	8.d	4b	4dd	4GG	4b	4dd
.	16g	.	.	.	.	.
=20	=20	=20	=20	=20	=20	=20
4.CC	4.e	4.cc	4.cc	4.CC	4.cc	4.cc
=21	=21	=21	=21	=21	=21	=21
4.r	4.r	4.r	4.r	4G#	8r	16b
.	.	.	.	.	.	16e
.	.	.	.	.	8ee	16g#
.	.	.	.	.	.	16b
.	.	.	.	8r	8e	16ee
.	.	.	.	.	.	16b
=22	=22	=22	=22	=22	=22	=22
4.r	4.r	4.r	4.r	4A	8r	16cc
.	.	.	.	.	.	16a
.	.	.	.	.	8cc	16cc
.	.	.	.	.	.	16ee
.	.	.	.	8r	8A	16cc
.	.	.	.	.	.	16a
=23	=23	=23	=23	=23	=23	=23
4G#	4e	8r	16b	4G#	8r	16b
.	.	.	16e	.	.	16e
.	.	8ee	16g#	.	8ee	16g#
.	.	.	16b	.	.	16b
8r	8r	8e	16ee	8r	8e	16ee
.	.	.	16b	.	.	16b
=24	=24	=24	=24	=24	=24	=24
4A	4e	8r	8cc	4A	8r	16cc
.	.	.	.	.	.	16a
.	.	8cc	8A	.	8cc	16cc
.	.	.	.	.	.	16ee
8r	8r	8A	8r	8r	8A	16cc
.	.	.	.	.	.	16a
=25	=25	=25	=25	=25	=25	=25
4.r	4.r	4.r	4.r	4c#	8r	16ee
.	.	.	.	.	.	16a
.	.	.	.	.	8aa	16cc#
.	.	.	.	.	.	16ee
.	.	.	.	8r	8a	16aa
.	.	.	.	.	.	16ee
=26	=26	=26	=26	=26	=26	=26
4.r	4.r	4.r	4.r	4d	8r	16ff
.	.	.	.	.	.	16dd
.	.	.	.	.	8ff	16ff
.	.	.	.	.	.	16aa
.	.	.	.	8r	8d	16ff
.	.	.	.	.	.	16dd
=27	=27	=27	=27	=27	=27	=27
4c#	4a	8r	16ee	4c#	8r	16ee
.	.	.	16a	.	.	16a
.	.	8aa	16cc#	.	8aa	16cc#
.	.	.	16ee	.	.	16ee
8r	8r	8a	16aa	8r	8a	16aa
.	.	.	16ee	.	.	16ee
=28	=28	=28	=28	=28	=28	=28
4d	4a	8r	8ff	4d	8r	16ff
.	.	.	.	.	.	16dd
.	.	8ff	8d	.	8ff	16ff
.	.	.	.	.	.	16aa
8r	8r	8d	8r	8r	8d	16ff
.	.	.	.	.	.	16dd
=29	=29	=29	=29	=29	=29	=29
4.r	4.r	4.r	4.r	4d#	8r	16ff#
.	.	.	.	.	.	16b
.	.	.	.	.	8bb	16dd#
.	.	.	.	.	.	16ff#
.	.	.	.	8r	8b	16bb
.	.	.	.	.	.	16ff#
=30	=30	=30	=30	=30	=30	=30
4.r	4.r	4.r	4.r	4e	8r	16gg
.	.	.	.	.	.	16ee
.	.	.	.	.	8gg	16gg
.	.	.	.	.	.	16bb
.	.	.	.	8r	8e	16gg
.	.	.	.	.	.	16ee
=31	=31	=31	=31	=31	=31	=31
4d#	4b	8r	16ff#	4d#	8r	16ff#
.	.	.	16b	.	.	16b
.	.	8bb	16dd#	.	8bb	16dd#
.	.	.	16ff#	.	.	16ff#
8r	8r	8b	16bb	8r	8b	16bb
.	.	.	16ff#	.	.	16ff#
=32	=32	=32	=32	=32	=32	=32
4e	4b	8r	8gg	4e	8r	16gg
.	.	.	.	.	.	16ee
.	.	8gg	8e	.	8gg	16gg
.	.	.	.	.	.	16bb
8r	8r	8e	8r	8r	8e	16gg
.	.	.	.	.	.	16ee
=33	=33	=33	=33	=33	=33	=33
4d	4b	8r	8ff#	4d	8r	16ff#
.	.	.	.	.	.	16b
.	.	8ff#	8d	.	8ff#	16ff#
.	.	.	.	.	.	16bb
8r	8r	8b	8r	8r	8b	16ff#
.	.	.	.	.	.	16b
=34	=34	=34	=34	=34	=34	=34
4c	4a	8r	8ee	4c	8r	16ee
.	.	.	.	.	.	16a
.	.	8ee	8c	.	8ee	16cc
.	.	.	.	.	.	16ee
8r	8r	8a	8r	8r	8a	16cc
.	.	.	.	.	.	16a
=35	=35	=35	=35	=35	=35	=35
4B	4f#	4a	8.dd#	4B	4a	8.dd#
.	.	.	16b	.	.	16b
8c	8e	8g	16ee	8c	8g	16ee
.	.	.	16aa	.	.	16aa
=36	=36	=36	=36	=36	=36	=36
8A	8cc	8ee	16gg	8A	8ee	16gg
.	.	.	16ff#	.	.	16ff#
8B	8.f#	8.ee	4ff#	8B	8.ee	4ff#
8BB	.	.	.	8BB	.	.
.	16b	16dd#	.	.	16dd#	.
=37	=37	=37	=37	=37	=37	=37
4E	4b	4ee	4ee	4E	4ee	16ee
.	.	.	.	.	.	16b
.	.	.	.	.	.	16ee
.	.	.	.	.	.	16dd#
8r	8r	8r	8r	8r	8r	16ee
.	.	.	.	.	.	16b
=38	=38	=38	=38	=38	=38	=38
4.r	4.r	4.r	4.r	4D#	4b	16ff#
.	.	.	.	.	.	16b
.	.	.	.	.	.	16ff#
.	.	.	.	.	.	16ee
.	.	.	.	8r	8r	16ff#
.	.	.	.	.	.	16b
=39	=39	=39	=39	=39	=39	=39
4.r	4.r	4.r	4.r	4E	4b	16gg
.	.	.	.	.	.	16b
.	.	.	.	.	.	16gg
.	.	.	.	.	.	16ff#
.	.	.	.	8r	8r	16gg
.	.	.	.	.	.	16b
=40	=40	=40	=40	=40	=40	=40
4D	4e	4b	16gg#	4D	4b	16gg#
.	.	.	16ee	.	.	16ee
.	.	.	16gg#	.	.	16gg#
.	.	.	16bb	.	.	16bb
8r	8r	8r	16gg#	8r	8r	16gg#
.	.	.	16ee	.	.	16ee
=41	=41	=41	=41	=41	=41	=41
4C	4e	4e	16aa	4C	4e	16aa
.	.	.	16a	.	.	16a
.	.	.	16cc	.	.	16cc
.	.	.	16ee	.	.	16ee
8AA	8cc	8a	16cc	8AA	8a	16cc
.	.	.	16a	.	.	16a
=42	=42	=42	=42	=42	=42	=42
4BB	4f#	4a	4d#	4BB	4a	4d#
8E	[8e	[8g	[8e	8E	[8g	[8e
=43	=43	=43	=43	=43	=43	=43
8AA	8e]	8g]	8e]	8AA	8g]	8e]
4BB	4B	4f#	8.e	4BB	4f#	8.e
.	.	.	16d#	.	.	16d#
=44	=44	=44	=44	=44	=44	=44
4.EE	4.B	4.e	4.e	4.EE	4.e	4.e
=45	=45	=45	=45	=45	=45	=45
4.r	4.r	4.r	4.r	4c	8ee	8gg
.	.	.	.	.	8cc	16ee
.	.	.	.	.	.	16ff
.	.	.	.	8B	8dd	8gg
=46	=46	=46	=46	=46	=46	=46
4.r	4.r	4.r	4.r	8A	8ee	8cc
.	.	.	.	8G	8ee	8cc
.	.	.	.	8F	8ff	8dd
=47	=47	=47	=47	=47	=47	=47
4.r	4.r	4.r	4.r	8E	8gg	16ee
.	.	.	.	.	.	16ff
.	.	.	.	8D	8g	16ee
.	.	.	.	.	.	16ff
.	.	.	.	8C	8cc	8gg
=48	=48	=48	=48	=48	=48	=48
4.r	4.r	4.r	4.r	4G	4b	4dd
.	.	.	.	8C	8cc	8cc
=49	=49	=49	=49	=49	=49	=49
4c	4cc	8ee	8gg	4c	8ee	8gg
.	.	8cc	16ee	.	8cc	16ee
.	.	.	16ff	.	.	16ff
8B	8g	8dd	8gg	8B	8dd	8gg
=50	=50	=50	=50	=50	=50	=50
8A	8cc	8ee	8cc	8A	8ee	8cc
8G	8b	8ee	8cc	8G	8ee	8cc
8F	8a	8ff	8dd	8F	8ff	8dd
=51	=51	=51	=51	=51	=51	=51
8E	4.g	8gg	16ee	8E	8gg	16ee
.	.	.	16ff	.	.	16ff
8D	.	8g	16ee	8D	8g	16ee
.	.	.	16ff	.	.	16ff
8C	.	8cc	8gg	8C	8cc	8gg
=52	=52	=52	=52	=52	=52	=52
4.G	4.g	4.b	4.dd	4.G	4.b	4.dd
=53	=53	=53	=53	=53	=53	=53
4.r	4.r	4.r	4.r	8G	8b	8dd
.	.	.	.	8F	8b	8dd
.	.	.	.	8E	8cc#	8ee
=54	=54	=54	=54	=54	=54	=54
4.r	4.r	4.r	4.r	4.D	16dd	16ff
.	.	.	.	.	16cc#	16ee
.	.	.	.	.	16dd	16ff
.	.	.	.	.	16ee	16gg
.	.	.	.	.	8dd	8ff
=55	=55	=55	=55	=55	=55	=55
4.r	4.r	4.r	4.r	8A	8cc	8ee
.	.	.	.	8G	8cc	8ee
.	.	.	.	8F	8dd	8ff
=56	=56	=56	=56	=56	=56	=56
4.r	4.r	4.r	4.r	4.E	16ee	16gg
.	.	.	.	.	16dd	16ff
.	.	.	.	.	16ee	16gg
.	.	.	.	.	16ff	16aa
.	.	.	.	.	8ee	8gg
=57	=57	=57	=57	=57	=57	=57
4.F	4f	8cc	16aa	4.F	8cc	16aa
.	.	.	16gg	.	.	16gg
.	.	16dd	16ff	.	16dd	16ff
.	.	16cc	16ee	.	16cc	16ee
.	8g	16b	16dd	.	16b	16dd
.	.	16a	16cc	.	16a	16cc
=58	=58	=58	=58	=58	=58	=58
8E	4c	8.g	8.gg	8E	8.g	8.gg
8D	.	.	.	8D	.	.
.	.	16b	16ff	.	16b	16ff
8C	8cc	16cc	16ee	8C	16cc	16ee
.	.	16b	16dd	.	16b	16dd
=59	=59	=59	=59	=59	=59	=59
8FF	8a	16cc	16ee	8FF	16cc	16ee
.	.	16dd	16ff	.	16dd	16ff
4GG	8.d	4b	4dd	4GG	4b	4dd
.	16g	.	.	.	.	.
=60	=60	=60	=60	=60	=60	=60
4.CC	4.e	4.cc	4.cc	4.CC	4.cc	4.cc
=61	=61	=61	=61	=61	=61	=61
4.F	4f	8cc	16aa	4.F	8cc	16aa
.	.	.	16gg	.	.	16gg
.	.	16dd	16ff	.	16dd	16ff
.	.	16cc	16ee	.	16cc	16ee
.	8g	16b	16dd	.	16b	16dd
.	.	16a	16cc	.	16a	16cc
=62	=62	=62	=62	=62	=62	=62
8E	4c	8.g	8.gg	8E	8.g	8.gg
8D	.	.	.	8D	.	.
.	.	16b	16ff	.	16b	16ff
8C	8cc	16cc	16ee	8C	16cc	16ee
.	.	16b	16dd	.	16b	16dd
=63	=63	=63	=63	=63	=63	=63
8FF	8a	16cc	16ee	8FF	16cc	16ee
.	.	16dd	16ff	.	16dd	16ff
4GG	8.d	4b	4dd	4GG	4b	4dd
.	16g	.	.	.	.	.
=64	=64	=64	=64	=64	=64	=64
4.CC	4.e	4.cc	4.cc	4.CC	4.cc	4.cc
==	==	==	==	==	==	==
*-	*-	*-	*-	*-	*-	*-
!!!RWG: This file only contains pitch and duration data.
!!!RWG: Transposing instruments are not transposed.
!!!RWG: Durations of rests and tied notes may be interpreted.
!!!RWG: Key is interpreted using the Humdrum key tool.
!!!SCA: 
!!!YOR: Chrysander Edition
!!!AGN: concerto grosso
!!!AFT: stage1
!!!ENC: F. Bennion
!!!END: 1997/04/15
!!!AST: baroque
!!!YEC: Copyright 1994, Center for Computer Assisted Research in the Humanities
!!!YEM: Rights to all derivative electronic formats reserved.
!!!YEM: Refer to licensing agreement for further details.
!!!YEN: United States of America
!!!EED: W.B. Hewlett
!!!KEY: 3810954152
!!!EMD: Converted from MuseData to Humdrum Aug 2, 1999, by Bret Aarden using muse2kern.
!!!VTS: 3962591122
